X:1
T:Si gioioso mi fanno
T:Lodovico Agostini
T:Si gioioso mi fanno
C:Lodovico Agostini
%%score [ 1 2 3 4 ]
L:1/8
Q:1/4=55
M:4/4
K:C
V:1 alto1 nm="Soprano" snm="S"
V:2 alto nm="Alto" snm="A"
V:3 tenor nm="Tenor" snm="T"
V:4 bass nm="Bass" snm="B"
V:1
 z8 | z8 | z8 | z8 | z8 | z8 | z8 | z8 | z8 | z8 | z8 | z4 A4 | A8- | A4 A4 | ^G6 G2 | A4 F4 | F8 | %17
w: |||||||||||Che|sempr'|_ a-|mand' o-|gn'hor mo-|rir|
 D4 D4- | D2 E2 F2 ED | E8 | ^F4 z2 A2 | A4 F4 | _B4 A2 d2- | d2 ^cB c4 | d8 | z8 | z8 | z8 | %28
w: vor- re-|||i, E|fra me|di- co po-||i,||||
 z4 d4- | d2 d2 ^c4 | d2 A2 _B4 | A2 A4 B2 | ^c4 d4 | G8 | G6 G2 | A4 B4 | c8 | A8 | z4 d4- | %39
w: Se|_ tal gio-|ia mi rec-|ca il mio mar-|ti- re,|Hor|che fa-|ra'l mo-|ri-|re,|Se|
 d2 d2 ^c4 | d2 A2 _B4 | A2 A4 B2 | ^c4 d4 | G8 | G6 G2 | A4 B4 | c8 | A4 z2 B2 | c6 G2 | A4 A4 | %50
w: _ tal gio-|ia mi rec-|ca il mio mar-|ti- re,|Hor|che fa-|ra'l mo-|ri-|re, Hor|che fa-|ra'l mo-|
 _B8 | A8 |] %52
w: ri-|re.|
V:2
 z8 | A4 A2 A2- | AA A2 G4 | F6 _E2 | D4 D4- | D4 E4 | F8 | E4 z2 E2 | E4 C4 | G6 FE | %10
w: |Si gio- io-|* so mi fan-|no i do-|lor mie-|* i,|Don-|na per|a- mar|vo- * *|
 D2 C2 D2 E2 | F8 | E4 z2 E2 | F3 E/D/ C2 D2 | E6 E2 | E4 D4 | D6 C2 | _B,8 | A,4 D4- | %19
w: ||i, Che|sempr' _ _ _ a-|mand' o-|gn'hor mo-|rir _|_|vor- re-|
 D2 ^CB, C4 | D4 z2 F2 | E4 D4 | DCDE F2 F2 | E8 | D4 z2 F2 | F4 A4 | G4 F4 | E8 | ^F4 z2 A2- | %29
w: |i, E|fra me|di- * * * * co|po-|i, E|fra me|di- co|po-|i, Se|
 A2 A2 A4 | A2 A2 G4 | F2 E4 E2 | E4 F4 | E8 | D6 D2 | D4 G4 | G8 | ^F8 | z4 A4- | A2 A2 A4 | %40
w: _ tal gio-|ia mi rec-|ca il mio mar-|ti- re,|Hor|che fa-|ra'l mo-|ri-|re,|Se|_ tal gio-|
 A2 A2 G4 | F2 E4 E2 | E4 F4 | E8 | D6 D2 | D4 G4 | G8 | ^F4 z2 G2 | G6 C2 | E4 ^F4 | G8 | ^F8 |] %52
w: ia mi rec-|ca il mio mar-|ti- re,|Hor|che fa-|ra'l mo-|ri-|re, Hor|che fa-|ra'l mo-|ri-|re.|
V:3
 z8 | E4 F2 E2- | EE E2 D4 | C4 _B,4 | A,4 B,4- | B,4 C4 | A,6 B,2 | C8 | B,4 z2 A,2 | E4 C4 | %10
w: |Si gio- io-|* so mi fan-|no i do-|lor mie-|* i,|Don- *||na per|a- mar|
 B,6 C2 | D2 A,2 D4 | ^C4 z2 =C2 | D4 A,4 | B,6 B,2 | A,4 A,4 | _B,6 A,G, | F,8- | F,4 A,4 | A,8 | %20
w: vo- *||i, Che|sempr' a-|mand' o-|gn'hor mo-|rir _ _|_|* vor-|re-|
 D,4 z2 D,2 | A,4 _B,4 | G,4 D,4 | A,8 | A,4 z2 A,2 | D4 C4 | _B,4 A,2 D2- | D2 ^CB, C4 | %28
w: i, E|fra me|di- co|po-|i, E|fra me|di- co po-||
 D4 z2 F2- | F2 F2 E4 | D2 D2 D4 | D2 C4 B,2 | A,4 A,4 | C8 | _B,6 B,2 | A,4 D4 | E8 | D8 | %38
w: i, Se|_ tal gio-|ia mi rec-|ca il mio mar-|ti- re,|Hor|che fa-|ra'l mo-|ri-|re,|
 z4 F4- | F2 F2 E4 | D2 D2 D4 | D2 C4 B,2 | A,4 A,4 | C8 | _B,6 B,2 | A,4 D4 | E8 | D4 z2 D2 | %48
w: Se|_ tal gio-|ia mi rec-|ca il mio mar-|ti- re,|Hor|che fa-|ra'l mo-|ri-|re, Hor|
 E6 E2 | ^C4 D4 | D8 | D8 |] %52
w: che fa-|ra'l mo-|ri-|re.|
V:4
 z8 | A,4 D,2 A,2- | A,A, A,2 _B,4- | B,2 A,4 G,2- | G,2 ^F,2 G,4- | G,4 C,4 | D,8 | A,,4 z2 A,,2 | %8
w: |Si gio- io-|* so mi fan-|* no i do-|* lor mie-|* i,|Don-|na per|
 E,4 F,4 | C,2 D,2 E,2 F,2 | G,8 | D,8 | z4 A,,4 | D,4 F,4 | E,6 E,2 | ^C,4 D,4 | _B,,8- | %17
w: a- mar|vo- * * *||i,|Che|sempr' a-|mand' o-|gn'hor mo-|rir|
 B,,4 _B,,4 | D,8 | A,,8 | z8 | z8 | z8 | z4 A,,4 | D,8- | D,4 F,4 | G,4 D,4 | A,8 | D,4 z2 D,2- | %29
w: _ vor-|re-|i,||||E|fra|_ me|di- co|po-|i, Se|
 D,2 D,2 A,4 | ^F,2 F,2 G,4 | D,2 A,4 ^G,2 | A,4 D,4 | C,8 | G,6 G,2 | ^F,4 G,4 | C,8 | D,8 | %38
w: _ tal gio-|ia mi rec-|ca il mio mar-|ti- re,|Hor|che fa-|ra'l mo-|ri-|re,|
 z4 D,4- | D,2 D,2 A,4 | ^F,2 F,2 G,4 | D,2 A,4 ^G,2 | A,4 D,4 | C,8 | G,6 G,2 | ^F,4 G,4 | C,8 | %47
w: Se|_ tal gio-|ia mi rec-|ca il mio mar-|ti- re,|Hor|che fa-|ra'l mo-|ri-|
 D,4 z2 G,,2 | C,6 C,2 | A,,4 D,4 | G,,8 | D,8 |] %52
w: re, Hor|che fa-|ra'l mo-|ri-|re.|

